src/images_karasa_jaga_svg/cmd/32/connectorcurvecircleend.svg

<svg height="32" width="32" xmlns="http://www.w3.org/2000/svg" xmlns:xlink="http://www.w3.org/1999/xlink"><linearGradient id="a"><stop offset="0" stop-color="#0968ef"/><stop offset="1" stop-color="#aecffc"/></linearGradient><linearGradient id="b" gradientTransform="matrix(1 0 0 -1 0 39.99999)" gradientUnits="userSpaceOnUse" x1="19.999992" x2="23.999992" xlink:href="#a" y1="3.999992" y2="59.999992"/><linearGradient id="c" gradientUnits="userSpaceOnUse" x1="111.99999" x2="111.99999" xlink:href="#a" y1="127.98162" y2="59.981625"/><g transform="scale(.25)"><g fill="#4d4d4d"><path d="m36 108h68v4h-68z" opacity=".99"/><path d="m96 64h-60v4h60z" opacity=".99"/><path d="m24 20h72v4h-72z" opacity=".99"/></g><circle cx="109.99081" cy="109.99081" fill="url(#c)" opacity=".99" r="18.009184"/><path d="m96 20v4c6.648 0 12 7.136 12 16v8c0 8.864-5.352 16-12 16v4c4.75527 0 8.93585-2.598715 11.69336-6.275391 2.75751-3.676675 4.30664-8.48752 4.30664-13.724609v-8c0-5.237089-1.54913-10.047934-4.30664-13.724609-2.75751-3.676676-6.93809-6.275391-11.69336-6.275391z" fill="#4d4d4d" fill-opacity=".992157" opacity=".99"/><path d="m36 64v4c-6.648 0-12 7.136-12 16v8c0 8.864 5.352 16 12 16v4c-4.75527 0-8.93585-2.59871-11.69336-6.27539s-4.30664-8.487521-4.30664-13.72461v-8c0-5.237089 1.54913-10.047934 4.30664-13.724609 2.75751-3.676676 6.93809-6.275391 11.69336-6.275391z" fill="#4d4d4d" fill-opacity=".992157" opacity=".99"/><path d="m4 35.99999h31.99999v-31.99999h-31.99999z" fill="url(#b)" opacity=".99"/></g></svg>

<?xml version="1.0" encoding="UTF-8" standalone="no"?>
<!-- Created with Inkscape (http://www.inkscape.org/) -->

<svg
   xmlns:dc="http://purl.org/dc/elements/1.1/"
   xmlns:cc="http://creativecommons.org/ns#"
   xmlns:rdf="http://www.w3.org/1999/02/22-rdf-syntax-ns#"
   xmlns:svg="http://www.w3.org/2000/svg"
   xmlns="http://www.w3.org/2000/svg"
   xmlns:xlink="http://www.w3.org/1999/xlink"
   xmlns:sodipodi="http://sodipodi.sourceforge.net/DTD/sodipodi-0.dtd"
   xmlns:inkscape="http://www.inkscape.org/namespaces/inkscape"
   width="128"
   height="128"
   id="svg3408"
   sodipodi:version="0.32"
   inkscape:version="0.92.3 (unknown)"
   version="1.0"
   sodipodi:docname="connectorcurvecircleend.svg"
   inkscape:output_extension="org.inkscape.output.svgz.inkscape"
   inkscape:export-filename="/home/rizmut/Dokumen/Rizmut/Github/libreoffice-style-karasa-jaga/build/images_karasa_Jaga/cmd/32/connectorcurvecircleend.png"
   inkscape:export-xdpi="24"
   inkscape:export-ydpi="24">
  <defs
     id="defs3410">
    <linearGradient
       id="linearGradient6330">
      <stop
         id="stop6332"
         offset="0"
         style="stop-color:#0968ef;stop-opacity:1;" />
      <stop
         id="stop6334"
         offset="1"
         style="stop-color:#aecffc;stop-opacity:1;" />
    </linearGradient>
    <linearGradient
       inkscape:collect="always"
       xlink:href="#linearGradient6330"
       id="linearGradient6293"
       x1="19.99999"
       y1="3.99999"
       x2="23.99999"
       y2="59.999989"
       gradientUnits="userSpaceOnUse"
       gradientTransform="translate(2.3706054e-6,2.3706054e-6)" />
    <linearGradient
       inkscape:collect="always"
       xlink:href="#linearGradient6330"
       id="linearGradient21558"
       x1="-16"
       y1="36"
       x2="-16"
       y2="-32"
       gradientUnits="userSpaceOnUse"
       gradientTransform="translate(127.99999,91.981623)" />
  </defs>
  <sodipodi:namedview
     id="base"
     pagecolor="#ffffff"
     bordercolor="#666666"
     borderopacity="1.0"
     inkscape:pageopacity="0.0"
     inkscape:pageshadow="2"
     inkscape:zoom="1.4142136"
     inkscape:cx="71.335498"
     inkscape:cy="2.9825403"
     inkscape:document-units="px"
     inkscape:current-layer="layer1"
     height="128px"
     width="128px"
     showborder="true"
     inkscape:showpageshadow="false"
     showgrid="true"
     inkscape:window-width="1366"
     inkscape:window-height="706"
     inkscape:window-x="0"
     inkscape:window-y="0"
     showguides="true"
     inkscape:guide-bbox="true"
     inkscape:window-maximized="1"
     inkscape:snap-global="true">
    <inkscape:grid
       id="GridFromPre046Settings"
       type="xygrid"
       originx="0"
       originy="0"
       spacingx="4"
       spacingy="4"
       color="#0000ff"
       empcolor="#0000ff"
       opacity="0.2"
       empopacity="0.4"
       empspacing="2" />
  </sodipodi:namedview>
  <metadata
     id="metadata3413">
    <rdf:RDF>
      <cc:Work
         rdf:about="">
        <dc:format>image/svg+xml</dc:format>
        <dc:type
           rdf:resource="http://purl.org/dc/dcmitype/StillImage" />
        <dc:title />
      </cc:Work>
    </rdf:RDF>
  </metadata>
  <g
     inkscape:label="Livello 1"
     inkscape:groupmode="layer"
     id="layer1">
    <rect
       y="108"
       x="36"
       height="4"
       width="68"
       id="rect9400"
       style="opacity:0.98999999;fill:#4d4d4d;fill-opacity:1;stroke:none;stroke-width:2.56186867;stroke-linecap:square;stroke-linejoin:round;stroke-miterlimit:4;stroke-dasharray:none;stroke-dashoffset:0;stroke-opacity:1" />
    <path
       style="opacity:0.98999999;fill:#4d4d4d;fill-opacity:1;stroke:none;stroke-width:3.97413278;stroke-linecap:square;stroke-linejoin:round;stroke-miterlimit:4;stroke-dasharray:none;stroke-dashoffset:0;stroke-opacity:1"
       d="M 96,64 H 36 v 4 h 60 z"
       id="rect858"
       inkscape:connector-curvature="0"
       sodipodi:nodetypes="ccccc" />
    <rect
       style="opacity:0.98999999;fill:#4d4d4d;fill-opacity:1;stroke:none;stroke-width:3.22860026;stroke-linecap:square;stroke-linejoin:round;stroke-miterlimit:4;stroke-dasharray:none;stroke-dashoffset:0;stroke-opacity:1"
       id="rect858-6"
       width="72"
       height="4"
       x="24"
       y="20" />
    <circle
       id="path910-5"
       style="opacity:0.98999999;fill:url(#linearGradient21558);fill-opacity:1;stroke:none;stroke-width:7.71822214;stroke-linecap:square;stroke-linejoin:round;stroke-miterlimit:4;stroke-dasharray:none;stroke-dashoffset:0;stroke-opacity:1"
       r="18.009184"
       cy="109.99081"
       cx="109.99081" />
    <path
       style="opacity:0.98999999;fill:#4d4d4d;fill-opacity:0.99215686;stroke:none;stroke-width:6;stroke-linecap:square;stroke-linejoin:round;stroke-miterlimit:4;stroke-dasharray:none;stroke-dashoffset:0;stroke-opacity:1"
       d="m 96,20 v 4 c 6.648,0 12,7.136 12,16 v 8 c 0,8.864 -5.352,16 -12,16 v 4 c 4.75527,0 8.93585,-2.598715 11.69336,-6.275391 C 110.45087,58.047934 112,53.237089 112,48 V 40 C 112,34.762911 110.45087,29.952066 107.69336,26.275391 104.93585,22.598715 100.75527,20 96,20 Z"
       id="rect1000"
       inkscape:connector-curvature="0"
       sodipodi:nodetypes="ccssccssssc" />
    <path
       sodipodi:nodetypes="ccssccssssc"
       inkscape:connector-curvature="0"
       id="path1011"
       d="m 36,64 v 4 c -6.648,0 -12,7.136 -12,16 v 8 c 0,8.864 5.352,16 12,16 v 4 c -4.75527,0 -8.93585,-2.59871 -11.69336,-6.27539 C 21.54913,102.04793 20,97.237089 20,92 V 84 C 20,78.762911 21.54913,73.952066 24.30664,70.275391 27.06415,66.598715 31.24473,64 36,64 Z"
       style="opacity:0.98999999;fill:#4d4d4d;fill-opacity:0.99215686;stroke:none;stroke-width:6;stroke-linecap:square;stroke-linejoin:round;stroke-miterlimit:4;stroke-dasharray:none;stroke-dashoffset:0;stroke-opacity:1" />
    <rect
       style="opacity:0.98999999;fill:url(#linearGradient6293);fill-opacity:1;stroke:none;stroke-width:5.33333158;stroke-linecap:square;stroke-linejoin:round;stroke-miterlimit:4;stroke-dasharray:none;stroke-dashoffset:0;stroke-opacity:1"
       id="rect9950"
       width="31.99999"
       height="31.99999"
       x="4"
       y="4" />
  </g>
</svg>
